X:4
T:C i A (Boda)
R:bodapolska
Z:2001 Brian Wilson 
M:3/4
L:1/8
Q:1/4=3D120
K:A
P:A
|: "A"A>A E>E A>A | "A"c>c A>c e>e | "D"f>f d>f g>g | "D"f>f d>d "E"c>B
|  "A"A>A E>E A>A | "A"c>c A>c e>e | "A"ed/e/ "D"f>c d>B | "E"BG/B/ "A"A4:|
P:B
|: "A"ef/e/ cz E>E | "A"A>A cA/c/ e2 | "A"ef/e/ "E"dz E>E | "E"G>G BG/B/d2
|  "E"de/d/ "A"cz E>E | "A"A>A cA/c/ e2 | "A"ed/e/ "D"f>c d>B | "E"BG/B/"A"A4 :|
